images/box.svg

<?xml version="1.0" standalone="no"?><!DOCTYPE svg PUBLIC "-//W3C//DTD SVG 1.1//EN" "http://www.w3.org/Graphics/SVG/1.1/DTD/svg11.dtd"><svg t="1522331112238" class="icon" style="" viewBox="0 0 1024 1024" version="1.1" xmlns="http://www.w3.org/2000/svg" p-id="7636" xmlns:xlink="http://www.w3.org/1999/xlink" width="16" height="16"><defs><style type="text/css"></style></defs><path d="M512 58.395l-391.469 227.425v453.605l391.469 226.182 391.469-227.425v-452.364l-391.469-227.425zM847.545 295.761l-335.545 195.113-335.545-195.113 335.545-193.871 335.545 193.871zM157.814 328.073l334.302 193.871-1.243 387.74-333.058-192.627v-388.982zM528.156 913.41l1.243-388.982 336.787-196.355v388.982l-338.030 196.355z" p-id="7637"></path></svg>

<svg class="icon" viewBox="0 0 1024 1024" xmlns="http://www.w3.org/2000/svg" width="16" height="16"><defs><style/></defs><path d="M512 58.395L120.531 285.82v453.605L512 965.607l391.469-227.425V285.818L512 58.393zm335.545 237.366L512 490.874 176.455 295.761 512 101.89l335.545 193.871zm-689.731 32.312l334.302 193.871-1.243 387.74-333.058-192.627V328.075zM528.156 913.41l1.243-388.982 336.787-196.355v388.982L528.156 913.41z"/></svg>
